X: 572
T: Polska från Malung (Malungsdansen e. Erkgärds Mats?)
O: Dalarna, Malung
R: Polska
Z: Håkan Lidén, 2008-09-28
M: 9/8
L: 1/4
K: Ddor
A3/2 A ^c/ d e/ | f e/ f/ g e g/ | f e/ d/ ^c d f/ | e d/ ^c/B/c/ A3/2 |
A3/2 A ^c/ d e/ | f e/ f/ g e g/ | f e/ d/ ^c d f/ | e/^c/e/ d3 :|
|: a3/2 a/_b/a/ g/a/g/ | f e/ f/ g e g/ | f e/ d/ ^c d f/ | e d/ ^c/B/c/ A3/2 |
a3/2 a/_b/a/ g/a/g/ | f e/ f/ g e g/ | f e/ d/ ^c d f/ | e/^c/e/ d3 :|]
(:musicend:)



(:music:)
